; generated by PrusaSlicer 2.5.0+linux-x64-GTK2 on 2023-09-12 at 14:30:35 UTC


;
;
; 

; external perimeters extrusion width = 0.60mm
; perimeters extrusion width = 0.50mm
; infill extrusion width = 0.50mm
; solid infill extrusion width = 0.50mm
; top infill extrusion width = 0.45mm
; support material extrusion width = 0.38mm
; first layer extrusion width = 0.42mm

M73 P0 R85
M73 Q0 S85
M201 X1000 Y1000 Z200 E5000 ; sets maximum accelerations, mm/sec^2
M203 X200 Y200 Z12 E120 ; sets maximum feedrates, mm / sec
M204 P1250 R1250 T1250 ; sets acceleration (P, T) and retract acceleration (R), mm/sec^2
M205 X8.00 Y8.00 Z0.40 E4.50 ; sets the jerk limits, mm/sec
M205 S0 T0 ; sets the minimum extruding and travel feed rate, mm/sec
M107
;TYPE:Custom
M862.3 P "MK3S" ; printer model check
M862.1 P0.4 ; nozzle diameter check
M115 U3.11.0 ; tell printer latest fw version
G90 ; use absolute coordinates
M83 ; extruder relative mode
M104 S275 ; set extruder temp
M140 S110 ; set bed temp
M190 S110 ; wait for bed temp
M109 S275 ; wait for extruder temp
G28 W ; home all without mesh bed level
G80 ; mesh bed leveling

G1 Z0.2 F720
G1 Y-3 F1000 ; go outside print area
G92 E0
G1 X60 E9 F1000 ; intro line
G1 X100 E12.5 F1000 ; intro line

G92 E0
M221 S95

; Don't change E values below. Excessive value can damage the printer.

M907 E538 ; set extruder motor current
G21 ; set units to millimeters
G90 ; use absolute coordinates
M83 ; use relative distances for extrusion
M900 K0.07 ; Filament gcode LA 1.5
M900 K45 ; Filament gcode LA 1.0
M107
;LAYER_CHANGE
;Z:0.25
;HEIGHT:0.25
;BEFORE_LAYER_CHANGE
G92 E0.0
;0.25


G1 E-.8 F2100
M73 P0 R84
G1 Z.2 F10800
G1 Z.25
;AFTER_LAYER_CHANGE
;0.25
G1 Z.45
G1 X108.198 Y74.597
G1 Z.25
G1 E.8 F2100
M204 S1000
;TYPE:Skirt/Brim
;WIDTH:0.42
G1 F3300
G1 X109.189 Y73.664 E.05183
G1 X110.247 Y73.414 E.04139
G1 X139.748 Y73.406 E1.12335
G1 X141.052 Y73.798 E.05183
G1 X141.798 Y74.59 E.04143
G1 X160.798 Y107.499 E1.44695
G1 X161.111 Y108.823 E.05183
G1 X160.798 Y109.865 E.04141
G1 X146.049 Y135.41 E1.12319
G1 X145.058 Y136.344 E.05183
G1 X144 Y136.594 E.04141
G1 X106 Y136.594 E1.44695
G1 X104.696 Y136.202 E.05183
G1 X103.951 Y135.41 E.04141
G1 X89.202 Y109.865 E1.12319
G1 X88.889 Y108.54 E.05183
G1 X89.202 Y107.499 E.04141
G1 X108.168 Y74.649 E1.44435
; printing object physalita_5.stl id:0 copy 0
;WIPE_START
G1 F8640
G1 X109.189 Y73.664 E-.32762
G1 X110.247 Y73.414 E-.25096
G1 X111.032 Y73.413 E-.18142
;WIPE_END
G1 E-.04 F2100
G1 Z.45 F10800
G1 X110.67 Y77.334
G1 Z.25
G1 E.8 F2100
;TYPE:Perimeter
;WIDTH:0.419999
G1 F3300
G1 X117.834 Y81.459 E.31481
G1 X118.171 Y81.523 E.01304
G1 X119.892 Y81.523 E.06553
;WIDTH:0.421787
G1 X130.108 Y81.523 E.39091
;WIDTH:0.419999
G1 X131.986 Y81.509 E.07153
G1 X132.287 Y81.4 E.01218
G1 X139.33 Y77.334 E.30968
G1 X157.188 Y108.263 E1.35992
G1 X150.033 Y112.406 E.31481
G1 X149.809 Y112.665 E.01304
G1 X148.949 Y114.156 E.06553
;WIDTH:0.421786
G1 X144.186 Y122.403 E.36439
;WIDTH:0.430123
G1 X143.841 Y123.003 E.02711
;WIDTH:0.419999
G1 X142.913 Y124.637 E.07153
G1 X142.857 Y124.952 E.01218
G1 X142.857 Y133.085 E.30968
G1 X107.143 Y133.085 E1.35992
G1 X107.133 Y124.817 E.31481
G1 X107.02 Y124.494 E.01304
G1 X106.159 Y123.003 E.06553
;WIDTH:0.421788
G1 X101.051 Y114.156 E.39091
;WIDTH:0.419999
G1 X100.1 Y112.536 E.07153
G1 X99.856 Y112.33 E.01218
G1 X92.812 Y108.263 E.30968
G1 X110.64 Y77.386 E1.35764
G1 X110.535 Y76.833 F10800
G1 F3300
G1 X117.896 Y81.083 E.32363
G1 X118.171 Y81.157 E.01083
G1 X131.829 Y81.157 E.52007
G1 X132.104 Y81.083 E.01083
G1 X139.465 Y76.833 E.32363
G1 X157.688 Y108.398 E1.38782
G1 X150.328 Y112.647 E.32363
G1 X150.126 Y112.848 E.01083
G1 X143.297 Y124.677 E.52007
G1 X143.224 Y124.952 E.01083
G1 X143.224 Y133.451 E.32363
G1 X106.776 Y133.451 E1.38782
G1 X106.776 Y124.952 E.32363
G1 X106.703 Y124.677 E.01083
G1 X99.874 Y112.848 E.52007
G1 X99.672 Y112.647 E.01083
G1 X92.312 Y108.398 E.32363
G1 X110.505 Y76.885 E1.38554
G1 X110.401 Y76.333 F10800
;TYPE:External perimeter
G1 F3300
G1 X117.459 Y80.408 E.31032
G1 X118.171 Y80.79 E.03076
G1 X131.087 Y80.79 E.4918
G1 X131.921 Y80.766 E.03178
G1 X139.599 Y76.333 E.33758
G1 X158.189 Y108.532 E1.41572
G1 X151.131 Y112.607 E.31032
G1 X150.444 Y113.032 E.03076
G1 X143.986 Y124.217 E.4918
G1 X143.59 Y124.952 E.03178
G1 X143.59 Y133.817 E.33758
G1 X106.41 Y133.817 E1.41572
G1 X106.41 Y125.667 E.31032
G1 X106.385 Y124.86 E.03076
G1 X99.928 Y113.675 E.4918
G1 X99.489 Y112.964 E.03178
G1 X91.811 Y108.532 E.33758
G1 X110.371 Y76.385 E1.41344
G1 X110.628 Y76.663 F10800
;WIPE_START
G1 F8640
G1 X113.234 Y78.009 E-.76
;WIPE_END
G1 E-.04 F2100
G1 Z.45 F10800
G1 X110.628 Y114.539
G1 Z.25
G1 E.8 F2100
;TYPE:Perimeter
G1 F3300
G1 X110.688 Y114.635 E.0043
G1 X110.754 Y114.94 E.0119
G1 X110.693 Y115.312 E.01435
G1 X108.065 Y122.07 E.27611
G1 X107.886 Y122.357 E.01287
G1 X107.612 Y122.562 E.01304
G1 X107.281 Y122.652 E.01304
G1 X106.996 Y122.673 E.01087
G1 X106.539 Y122.59 E.01772
;WIDTH:0.430129
G1 X106.221 Y122.352 E.01555
G1 X106.133 Y122.219 E.00624
;WIDTH:0.421788
G1 X101.717 Y114.571 E.33788
G1 X101.599 Y114.034 E.02105
;WIDTH:0.419999
G1 X101.755 Y113.596 E.01772
G1 X101.917 Y113.36 E.01087
G1 X102.16 Y113.118 E.01304
G1 X102.474 Y112.983 E.01304
G1 X102.812 Y112.972 E.01287
G1 X109.979 Y114.075 E.27611
G1 X110.281 Y114.178 E.01214
G1 X110.519 Y114.366 E.01159
G1 X110.596 Y114.488 E.00549
G1 X110.313 Y114.717 F10800
G1 F3300
G1 X110.348 Y114.773 E.00254
G1 X110.38 Y115.077 E.01166
G1 X107.723 Y121.938 E.28012
G1 X107.583 Y122.143 E.00946
G1 X107.452 Y122.233 E.00608
G1 X106.968 Y122.308 E.01862
G1 X106.694 Y122.258 E.01063
G1 X106.451 Y122.035 E.01256
G1 X102.035 Y114.388 E.33624
G1 X101.964 Y114.066 E.01256
G1 X102.058 Y113.803 E.01063
G1 X102.365 Y113.422 E.01862
G1 X102.634 Y113.329 E.01083
G1 X102.756 Y113.334 E.00467
G1 X109.923 Y114.437 E.27611
G1 X110.104 Y114.499 E.00729
G1 X110.247 Y114.612 E.00695
G1 X110.281 Y114.666 E.00242
G1 X110 Y114.893 F10800
;TYPE:External perimeter
G1 F3300
G1 X110.01 Y115.047 E.00588
G1 X107.382 Y121.805 E.27611
G1 X107.291 Y121.903 E.00509
G1 X106.941 Y121.943 E.01344
G1 X106.786 Y121.878 E.00638
G1 X102.353 Y114.204 E.33744
G1 X102.329 Y114.097 E.00419
G1 X102.521 Y113.774 E.01433
G1 X102.66 Y113.694 E.00607
G1 X102.7 Y113.696 E.00156
G1 X109.867 Y114.799 E.27611
G1 X109.951 Y114.858 E.0039
G1 X110.155 Y114.894 F10800
;WIPE_START
G1 F8640
G1 X110.01 Y115.047 E-.0456
G1 X108.889 Y117.93 E-.7144
;WIPE_END
G1 E-.04 F2100
G1 Z.45 F10800
G1 X115.405 Y110.823
G1 Z.25
M73 Q0 S84
G1 E.8 F2100
;TYPE:Perimeter
G1 F3300
G1 X115.016 Y109.91 E.03781
G1 X114.699 Y108.897 E.0404
G1 X114.484 Y107.858 E.0404
G1 X114.374 Y106.803 E.04039
G1 X114.369 Y105.742 E.0404
G1 X114.47 Y104.686 E.0404
G1 X114.676 Y103.646 E.0404
G1 X114.984 Y102.63 E.0404
G1 X115.392 Y101.651 E.0404
G1 X115.896 Y100.717 E.0404
G1 X116.49 Y99.838 E.0404
G1 X117.168 Y99.023 E.0404
G1 X117.924 Y98.279 E.04039
G1 X118.751 Y97.614 E.0404
G1 X119.64 Y97.034 E.0404
G1 X120.582 Y96.546 E.0404
G1 X121.568 Y96.154 E.0404
G1 X122.631 Y95.852 E.04209
G1 X123.632 Y95.674 E.03872
G1 X124.471 Y95.625 E.03202
G1 X125.197 Y95.589 E.02768
G1 X126.278 Y95.662 E.04124
G1 X127.323 Y95.842 E.0404
G1 X128.346 Y96.125 E.0404
G1 X129.335 Y96.509 E.0404
G1 X130.281 Y96.988 E.0404
G1 X131.175 Y97.56 E.0404
G1 X132.007 Y98.218 E.0404
G1 X132.77 Y98.956 E.0404
G1 X133.455 Y99.765 E.0404
G1 X134.057 Y100.639 E.0404
G1 X134.568 Y101.569 E.0404
G1 X134.984 Y102.545 E.0404
G1 X135.301 Y103.557 E.0404
G1 X135.516 Y104.596 E.0404
G1 X135.631 Y105.742 E.04387
G1 X135.631 Y106.712 E.03692
G1 X135.53 Y107.768 E.0404
G1 X135.324 Y108.809 E.0404
G1 X135.017 Y109.819 E.0402
G1 X134.608 Y110.803 E.04058
G1 X134.127 Y111.695 E.03857
G1 X133.51 Y112.616 E.04222
G1 X132.832 Y113.432 E.0404
G1 X132.076 Y114.176 E.0404
G1 X131.249 Y114.841 E.0404
G1 X130.36 Y115.42 E.0404
G1 X129.418 Y115.908 E.0404
G1 X128.432 Y116.3 E.0404
G1 X127.413 Y116.592 E.0404
G1 X126.255 Y116.793 E.04473
G1 X124.803 Y116.866 E.05537
G1 X123.722 Y116.792 E.04125
G1 X122.676 Y116.612 E.0404
G1 X121.654 Y116.329 E.04039
G1 X120.665 Y115.946 E.0404
G1 X119.719 Y115.466 E.0404
G1 X118.825 Y114.894 E.0404
G1 X117.993 Y114.236 E.04039
G1 X117.199 Y113.467 E.04209
G1 X116.544 Y112.689 E.03873
G1 X115.943 Y111.815 E.04039
G1 X115.429 Y110.878 E.04068
G1 X115.74 Y110.679 F10800
G1 F3300
G1 X115.353 Y109.768 E.03768
G1 X115.049 Y108.789 E.03901
G1 X114.843 Y107.786 E.03901
G1 X114.738 Y106.767 E.039
G1 X114.736 Y105.742 E.03901
G1 X114.835 Y104.723 E.03901
G1 X115.035 Y103.718 E.03901
G1 X115.335 Y102.738 E.03901
G1 X115.73 Y101.793 E.03901
G1 X116.218 Y100.892 E.03901
G1 X116.792 Y100.044 E.03901
G1 X117.449 Y99.258 E.03901
G1 X118.18 Y98.541 E.03901
G1 X118.979 Y97.9 E.03901
G1 X119.838 Y97.342 E.03901
G1 X120.749 Y96.872 E.03901
G1 X121.701 Y96.495 E.03901
G1 X122.74 Y96.203 E.04109
G1 X123.696 Y96.035 E.03694
G1 X124.49 Y95.991 E.03028
G1 X125.215 Y95.955 E.02768
G1 X126.25 Y96.028 E.03951
G1 X127.26 Y96.203 E.03901
G1 X128.247 Y96.478 E.03901
G1 X129.201 Y96.85 E.03901
G1 X130.114 Y97.314 E.03901
G1 X130.976 Y97.868 E.03901
G1 X131.779 Y98.505 E.03901
G1 X132.514 Y99.218 E.03901
G1 X133.175 Y100.001 E.03901
G1 X133.754 Y100.846 E.03901
G1 X134.246 Y101.744 E.03901
G1 X134.647 Y102.687 E.03901
G1 X134.951 Y103.665 E.03901
G1 X135.157 Y104.669 E.03901
G1 X135.264 Y105.742 E.04109
G1 X135.264 Y106.712 E.03692
G1 X135.165 Y107.732 E.03901
G1 X134.965 Y108.736 E.03901
G1 X134.667 Y109.711 E.03881
G1 X134.27 Y110.661 E.03919
G1 X133.806 Y111.52 E.03718
G1 X133.208 Y112.41 E.04083
G1 X132.551 Y113.196 E.03901
G1 X131.82 Y113.914 E.03901
G1 X131.021 Y114.555 E.03901
G1 X130.162 Y115.113 E.03901
G1 X129.251 Y115.582 E.03901
G1 X128.299 Y115.959 E.03901
G1 X127.313 Y116.239 E.03901
G1 X126.237 Y116.428 E.04161
G1 X124.785 Y116.5 E.05537
G1 X123.749 Y116.427 E.03951
G1 X122.74 Y116.251 E.03901
G1 X121.753 Y115.977 E.03901
G1 X120.799 Y115.605 E.03901
G1 X119.886 Y115.14 E.03901
G1 X119.024 Y114.586 E.03901
G1 X118.221 Y113.95 E.03901
G1 X117.449 Y113.196 E.04109
G1 X116.825 Y112.453 E.03694
G1 X116.246 Y111.609 E.039
G1 X115.766 Y110.733 E.03803
G1 X116.075 Y110.535 F10800
;TYPE:External perimeter
G1 F3300
G1 X115.691 Y109.625 E.0376
G1 X115.399 Y108.681 E.03762
G1 X115.202 Y107.713 E.03762
G1 X115.103 Y106.73 E.03761
G1 X115.102 Y105.742 E.03762
G1 X115.199 Y104.759 E.03762
G1 X115.394 Y103.791 E.03762
G1 X115.685 Y102.846 E.03762
G1 X116.068 Y101.936 E.03762
G1 X116.539 Y101.068 E.03762
G1 X117.095 Y100.251 E.03762
G1 X117.729 Y99.493 E.03762
G1 X118.436 Y98.803 E.03762
G1 X119.208 Y98.186 E.03762
G1 X120.037 Y97.65 E.03762
G1 X120.916 Y97.198 E.03762
G1 X121.835 Y96.836 E.03762
G1 X122.804 Y96.564 E.03831
G1 X123.759 Y96.395 E.03694
G1 X124.508 Y96.357 E.02854
G1 X125.234 Y96.32 E.02768
G1 X126.223 Y96.393 E.03777
G1 X127.196 Y96.564 E.03762
G1 X128.148 Y96.831 E.03762
G1 X129.067 Y97.191 E.03762
G1 X129.947 Y97.64 E.03762
G1 X130.777 Y98.176 E.03762
G1 X131.55 Y98.791 E.03762
G1 X132.258 Y99.48 E.03762
G1 X132.894 Y100.236 E.03762
G1 X133.451 Y101.052 E.03762
G1 X133.925 Y101.919 E.03762
G1 X134.309 Y102.829 E.03762
G1 X134.601 Y103.773 E.03762
G1 X134.798 Y104.741 E.03762
G1 X134.898 Y105.742 E.03831
G1 X134.898 Y106.712 E.03692
G1 X134.801 Y107.695 E.03762
G1 X134.606 Y108.664 E.03762
G1 X134.317 Y109.603 E.03742
G1 X133.933 Y110.519 E.03781
G1 X133.484 Y111.344 E.03578
G1 X132.905 Y112.203 E.03944
G1 X132.271 Y112.961 E.03762
G1 X131.564 Y113.651 E.03762
G1 X130.792 Y114.268 E.03762
G1 X129.963 Y114.805 E.03762
G1 X129.084 Y115.256 E.03762
G1 X128.165 Y115.618 E.03762
G1 X127.214 Y115.887 E.03762
G1 X126.219 Y116.062 E.03848
G1 X124.766 Y116.134 E.05537
G1 X123.777 Y116.061 E.03778
G1 X122.804 Y115.891 E.03762
G1 X121.853 Y115.624 E.03762
G1 X120.933 Y115.264 E.03762
G1 X120.053 Y114.814 E.03762
G1 X119.223 Y114.279 E.03762
G1 X118.45 Y113.664 E.03762
G1 X117.729 Y112.961 E.03831
G1 X117.106 Y112.218 E.03694
G1 X116.549 Y111.402 E.03761
G1 X116.104 Y110.588 E.03534
G1 X115.676 Y110.505 F10800
;WIPE_START
G1 F8640
G1 X115.691 Y109.625 E-.24179
G1 X115.399 Y108.681 E-.22813
G1 X115.202 Y107.713 E-.22812
G1 X115.175 Y107.446 E-.06195
;WIPE_END
G1 E-.04 F2100
G1 Z.45 F10800
G1 X125.002 Y89.625
G1 Z.25
G1 E.8 F2100
;TYPE:Perimeter
G1 F3300
G1 X124.681 Y89.58 E.01234
G1 X124.374 Y89.39 E.01377
G1 X119.747 Y83.639 E.28104
G1 X119.588 Y83.341 E.01287
G1 X119.548 Y83.001 E.01304
G1 X119.636 Y82.67 E.01304
G1 X119.759 Y82.413 E.01087
G1 X120.06 Y82.058 E.01772
;WIDTH:0.430128
G1 X120.426 Y81.902 E.01555
G1 X120.585 Y81.892 E.00624
;WIDTH:0.421787
G1 X129.415 Y81.892 E.33788
G1 X129.94 Y82.058 E.02105
;WIDTH:0.419999
G1 X130.241 Y82.413 E.01772
G1 X130.364 Y82.67 E.01087
G1 X130.452 Y83.001 E.01304
G1 X130.412 Y83.341 E.01304
G1 X130.253 Y83.639 E.01287
G1 X125.714 Y89.295 E.27611
G1 X125.423 Y89.534 E.01435
G1 X125.062 Y89.634 E.01428
G1 X125.006 Y89.252 F10800
G1 F3300
G1 X124.905 Y89.263 E.00385
G1 X124.645 Y89.141 E.01093
G1 X120.033 Y83.41 E.28012
G1 X119.925 Y83.186 E.00946
G1 X119.913 Y83.027 E.00608
G1 X120.089 Y82.571 E.01862
G1 X120.27 Y82.358 E.01063
G1 X120.585 Y82.259 E.01256
G1 X129.415 Y82.259 E.33624
G1 X129.73 Y82.358 E.01256
G1 X129.911 Y82.571 E.01063
G1 X130.087 Y83.027 E.01862
G1 X130.033 Y83.306 E.01083
G1 X129.967 Y83.41 E.00467
G1 X125.429 Y89.065 E.27611
G1 X125.204 Y89.232 E.01064
G1 X125.065 Y89.246 E.0053
G1 X125.002 Y88.905 F10800
;TYPE:External perimeter
G1 F3300
G1 X124.857 Y88.836 E.00611
G1 X120.318 Y83.181 E.27611
G1 X120.279 Y83.053 E.00509
G1 X120.42 Y82.729 E.01344
G1 X120.553 Y82.628 E.00638
G1 X129.415 Y82.626 E.33744
G1 X129.52 Y82.659 E.00419
G1 X129.704 Y82.987 E.01433
G1 X129.703 Y83.146 E.00607
G1 X129.682 Y83.181 E.00156
G1 X125.143 Y88.836 E.27611
G1 X125.056 Y88.878 E.00367
G1 X124.922 Y89.044 F10800
;WIPE_START
G1 F8640
G1 X124.857 Y88.836 E-.04699
G1 X122.924 Y86.428 E-.71301
;WIPE_END
G1 E-.04 F2100
G1 Z.45 F10800
G1 X139.568 Y115.984
G1 Z.25
G1 E.8 F2100
;TYPE:Perimeter
G1 F3300
G1 X139.307 Y115.312 E.02746
G1 X139.246 Y114.94 E.01435
G1 X139.351 Y114.552 E.01531
G1 X139.545 Y114.302 E.01208
G1 X139.803 Y114.137 E.01162
G1 X140.307 Y114.031 E.01964
G1 X147.188 Y112.972 E.26509
G1 X147.526 Y112.983 E.01287
G1 X147.84 Y113.118 E.01304
G1 X148.083 Y113.36 E.01304
G1 X148.245 Y113.596 E.01087
G1 X148.401 Y114.034 E.01772
;WIDTH:0.430129
G1 X148.354 Y114.429 E.01555
G1 X148.283 Y114.571 E.00624
;WIDTH:0.421786
G1 X143.867 Y122.219 E.33788
;WIDTH:0.430123
G1 X143.779 Y122.352 E.00624
G1 X143.461 Y122.59 E.01555
;WIDTH:0.419999
G1 X143.004 Y122.673 E.01772
G1 X142.719 Y122.652 E.01087
G1 X142.388 Y122.562 E.01304
G1 X142.114 Y122.357 E.01304
G1 X141.935 Y122.07 E.01287
G1 X139.59 Y116.04 E.24636
G1 X139.778 Y115.512 F10800
G1 F3300
G1 X139.648 Y115.179 E.01357
G1 X139.617 Y114.902 E.01064
G1 X139.678 Y114.717 E.0074
G1 X139.791 Y114.573 E.00699
G1 X140.053 Y114.441 E.01116
G1 X147.244 Y113.334 E.27703
G1 X147.491 Y113.353 E.00946
G1 X147.635 Y113.422 E.00608
G1 X147.942 Y113.803 E.01862
G1 X148.036 Y114.066 E.01063
G1 X147.965 Y114.388 E.01256
G1 X143.549 Y122.035 E.33624
G1 X143.306 Y122.258 E.01256
G1 X143.032 Y122.308 E.01063
G1 X142.548 Y122.233 E.01862
G1 X142.334 Y122.046 E.01083
G1 X142.277 Y121.938 E.00467
G1 X139.799 Y115.567 E.26025
G1 X139.99 Y115.047 F10800
;TYPE:External perimeter
G1 F3300
G1 X140 Y114.893 E.00588
G1 X140.133 Y114.799 E.00619
G1 X147.3 Y113.696 E.27611
G1 X147.43 Y113.725 E.00509
G1 X147.64 Y114.009 E.01344
G1 X147.661 Y114.176 E.00638
G1 X147.647 Y114.204 E.00121
G1 X143.232 Y121.852 E.33624
G1 X143.151 Y121.926 E.00419
G1 X142.775 Y121.921 E.01433
G1 X142.637 Y121.841 E.00607
G1 X142.618 Y121.805 E.00156
G1 X140.012 Y115.102 E.27383
G1 X139.85 Y114.981 F10800
;WIPE_START
G1 F8640
G1 X140 Y114.893 E-.04855
G1 X140.133 Y114.799 E-.03753
G1 X143.017 Y114.355 E-.67392
;WIPE_END
G1 E-.04 F2100
G1 Z.45 F10800
G1 X140.309 Y79.249
G1 Z.25
G1 E.8 F2100
;TYPE:Solid infill
;WIDTH:0.420159
G1 F3300
G1 X138.938 Y77.877 E.07389
